X:1
T:Hornpipe
T:Hornpipe
T:From "The Fairy Queen"
T:Henry Purcell
C:Henry Purcell
%%score 1 2
L:1/8
M:3/2
K:Gmin
V:1 treble 
V:2 bass 
V:1
 G2 Bc d2 =e^f g2 ag | ^f6 =e2 d2 dc | Be d2 Ad c2 Gc B2 | B6 A2 G4 | B2 Bc d2 de f2 ed | %5
 g2 ga b2 ag fg f2 | ef e2 de d2 cd B2 | B6 A2 B4 :: de f2 de f2 edcB | AB c2 AB c2 dcBA | %10
 GA B2 GA B2 cBAG | ^F6 GA D2 =EF | GD G2 BG B2 cA c2 | dB d2 fd f2 g=e g2 | a^f a2 bfgd ecdA | %15
 A6 G2 G4 :| %16
V:2
 G,6 G,A, B,2 G,2 | D6 D,=E, ^F,2 D,2 | G,4 F,4 E,4 | D,4 D,4 G,,4 | G,8 F,4 | E,8 D,4 | %6
 C,4 B,,4 E,4 | F,4 F,,4 B,,4 :: B,8 B,,4 | F,8 B,,4 | E,8 C,4 | D,4 D,4 C,4 | B,,4 G,,4 F,,4 | %13
 B,,4 B,4 G,4 | D4 B,4 C4 | D4 D,4 G,,4 :| %16

